media/ico/ico_noaudio.svg

<svg width="96" height="96" viewBox="0 0 96 96" fill="none" xmlns="http://www.w3.org/2000/svg">
<path d="M14.8281 9.17188L9.17188 14.8281L25.1719 30.8281L20 36H12C7.58 36 4 39.58 4 44V52C4 56.42 7.58 60 12 60H20L44 84V49.6562L81.1719 86.8281L86.8281 81.1719L14.8281 9.17188ZM44 12L36.4766 19.5234L44 27.0469V12ZM77.9375 14.0625L72.2812 19.7188C79.8373 27.2708 84 37.316 84 48C84 53.524 82.87 58.8651 80.75 63.7891L86.75 69.7969C90.162 63.1289 92 55.708 92 48C92 35.18 87.0055 23.1265 77.9375 14.0625ZM66.625 25.375L60.9688 31.0312C66.3527 36.4152 68.5386 43.7296 67.7266 50.7656L74.5156 57.5625C77.9396 46.5625 75.321 34.071 66.625 25.375ZM30.8281 36.4844L36 41.6562V64.6875L25.6562 54.3438L23.3125 52H12V44H23.3125L30.8281 36.4844Z" fill="#4F4AFF"/>
</svg>

<?xml version="1.0" encoding="utf-8"?>
<!-- Generator: Adobe Illustrator 28.0.0, SVG Export Plug-In . SVG Version: 6.00 Build 0)  -->
<svg version="1.1" id="Layer_1" xmlns="http://www.w3.org/2000/svg" xmlns:xlink="http://www.w3.org/1999/xlink" x="0px" y="0px"
	 viewBox="0 0 96 96" style="enable-background:new 0 0 96 96;" xml:space="preserve">
<style type="text/css">
	.st0{fill:#B3B3B3;}
</style>
<path class="st0" d="M14.8,9.2l-5.7,5.7l16,16L20,36h-8c-4.4,0-8,3.6-8,8v8c0,4.4,3.6,8,8,8h8l24,24V49.7l37.2,37.2l5.7-5.7
	L14.8,9.2z M44,12l-7.5,7.5L44,27V12z M77.9,14.1l-5.7,5.7C79.8,27.3,84,37.3,84,48c0,5.5-1.1,10.9-3.2,15.8l6,6
	C90.2,63.1,92,55.7,92,48C92,35.2,87,23.1,77.9,14.1z M66.6,25.4L61,31c5.4,5.4,7.6,12.7,6.8,19.7l6.8,6.8
	C77.9,46.6,75.3,34.1,66.6,25.4z M30.8,36.5l5.2,5.2v23L25.7,54.3L23.3,52H12v-8h11.3L30.8,36.5z"/>
</svg>
